front/assets/images/icone-ressource.svg

<svg width="12" height="13" viewBox="0 0 12 13" fill="none" xmlns="http://www.w3.org/2000/svg">
    <path fill-rule="evenodd" clip-rule="evenodd" d="M10.5 9.10352H3C2.72386 9.10352 2.5 9.32737 2.5 9.60352C2.5 9.87966 2.72386 10.1035 3 10.1035H10.5V11.1035H3C2.17157 11.1035 1.5 10.4319 1.5 9.60352V2.10352C1.5 1.55123 1.94772 1.10352 2.5 1.10352H10.5V9.10352ZM8 4.60352V3.60352H4V4.60352H8Z" fill="white"/>
</svg>

<svg xmlns="http://www.w3.org/2000/svg" width="12" height="13" fill="none"><path fill="#fff" fill-rule="evenodd" d="M10.5 9.104H3a.5.5 0 1 0 0 1h7.5v1H3a1.5 1.5 0 0 1-1.5-1.5v-7.5a1 1 0 0 1 1-1h8zM8 4.604v-1H4v1z" clip-rule="evenodd"/></svg>
